usr/share/icons/biglinux-icons-material-dark/16/places/mail-folder-outbox.svg

<svg version="1.1" viewBox="0 0 16 16" xmlns="http://www.w3.org/2000/svg">
 <defs>
  <style id="current-color-scheme" type="text/css">.ColorScheme-Text {
        color:#dedede;
      }</style>
 </defs>
 <path d="m4 3.3398c-0.57258 0.27831-0.98041 0.66265-1.1699 0.91016l-2.625 3.4277c-0.13316 0.17448-0.20523 0.38793-0.20508 0.60742v0.21484 0.5 3c0 1.108 0.892 2 2 2h11c1.108 0 1.9979-0.892 2-2v-3-0.5-0.21484c1.48e-4 -0.21949-0.071918-0.43294-0.20508-0.60742l-2.625-3.4277c-0.1895-0.24751-0.59734-0.63185-1.1699-0.91016v1.1309c0.15026 0.12507 0.27658 0.25816 0.375 0.38672l2.4062 3.1426h-1.7812-1.041-0.88086-0.12891c-0.23757 1.1639-1.2613 1.9999-2.4492 2-1.1864-0.0019886-2.208-0.83756-2.4453-2h-0.13281-0.88281-2.8203l2.4062-3.1426c0.098429-0.12856 0.22475-0.26165 0.375-0.38672v-1.1309zm-3 5.6602h3.3418c0.57875 1.2201 1.8078 1.9984 3.1582 2 1.3503-0.0033 2.5693-0.78633 3.1465-2h0.011719 1.3418 2v3c0 0.554-0.446 1-1 1h-11c-0.554 0-1-0.446-1-1v-3z" style="fill:currentColor" class="ColorScheme-Text"/>
 <path d="m7.5 8c-0.277 0-0.5-0.223-0.5-0.5v-4.793l-1.2676 1.2676c-0.19587 0.19587-0.51116 0.19587-0.70703 0s-0.19587-0.51116 0-0.70703l2.1211-2.1211c0.047012-0.047012 0.10324-0.08407 0.16602-0.10938 0.057904-0.023336 0.12105-0.037109 0.1875-0.037109 0.066453 0 0.1296 0.013774 0.1875 0.037109 0.062778 0.0253 0.119 0.062358 0.16602 0.10938l2.1211 2.1211c0.19587 0.19587 0.19587 0.51116 0 0.70703-0.19587 0.19587-0.51116 0.19587-0.70703 0l-1.2676-1.2676v4.793c0 0.277-0.223 0.5-0.5 0.5z" style="fill:currentColor" class="ColorScheme-Text"/>
</svg>

<svg xmlns="http://www.w3.org/2000/svg" viewBox="0 0 16 16">
<defs>
<style id="current-color-scheme" type="text/css">
.ColorScheme-Text{color:#dedede}
</style>
</defs>
<path d="M4 3.34c-.573.278-.98.662-1.17.91L.205 7.678A1 1 0 0 0 0 8.285V12c0 1.108.892 2 2 2h11a1.997 1.997 0 0 0 2-2V8.285a1 1 0 0 0-.205-.607L12.17 4.25c-.19-.248-.597-.632-1.17-.91v1.13a2.5 2.5 0 0 1 .375.387L13.781 8H9.95a2.5 2.5 0 0 1-2.45 2 2.5 2.5 0 0 1-2.445-2H1.219l2.406-3.143c.098-.128.225-.261.375-.386zM1 9h3.342A3.5 3.5 0 0 0 7.5 11a3.5 3.5 0 0 0 3.147-2H14v3c0 .554-.446 1-1 1H2c-.554 0-1-.446-1-1z" class="ColorScheme-Text" style="fill:currentColor"/>
<path d="M7.5 8a.5.5 0 0 1-.5-.5V2.707L5.732 3.975a.499.499 0 1 1-.707-.707l2.121-2.122a.5.5 0 0 1 .541-.109.5.5 0 0 1 .167.11l2.12 2.12a.499.499 0 1 1-.706.708L8 2.707V7.5c0 .277-.223.5-.5.5" class="ColorScheme-Text" style="fill:currentColor"/>
</svg>
